_includes/icons/ios-webcam.svg

<svg fill="#666" height="50" viewBox="0 0 50 50" width="50" xmlns="http://www.w3.org/2000/svg"><path d="m10 4c-3.3016254 0-6 2.6983746-6 6v30c0 3.301625 2.6983746 6 6 6h30c3.301625 0 6-2.698375 6-6v-30c0-3.3016254-2.698375-6-6-6zm0 2h30c2.220375 0 4 1.7796254 4 4v30c0 2.220375-1.779625 4-4 4h-30c-2.2203746 0-4-1.779625-4-4v-30c0-2.2203746 1.7796254-4 4-4zm15 5c-7.719465 0-14 6.279517-14 14s6.280535 14 14 14 14-6.279517 14-14-6.280535-14-14-14zm0 2c6.638535 0 12 5.360483 12 12s-5.361465 12-12 12-12-5.360483-12-12 5.361465-12 12-12zm0 2.947266c-4.986893 0-9.052734 4.065841-9.052734 9.052734s4.065841 9.052734 9.052734 9.052734 9.052734-4.065841 9.052734-9.052734-4.065841-9.052734-9.052734-9.052734zm0 2.105468c3.849107 0 6.947266 3.098159 6.947266 6.947266s-3.098159 6.947266-6.947266 6.947266-6.947266-3.098159-6.947266-6.947266 3.098159-6.947266 6.947266-6.947266z"/></svg>

<svg xmlns="http://www.w3.org/2000/svg" viewBox="0 0 50 50" width="50" height="50" fill="#666"><path style="line-height:normal;text-indent:0;text-align:start;text-decoration-line:none;text-decoration-style:solid;text-decoration-color:#000;text-transform:none;block-progression:tb;isolation:auto;mix-blend-mode:normal" d="M 10 4 C 6.6983746 4 4 6.6983746 4 10 L 4 40 C 4 43.301625 6.6983746 46 10 46 L 40 46 C 43.301625 46 46 43.301625 46 40 L 46 10 C 46 6.6983746 43.301625 4 40 4 L 10 4 z M 10 6 L 40 6 C 42.220375 6 44 7.7796254 44 10 L 44 40 C 44 42.220375 42.220375 44 40 44 L 10 44 C 7.7796254 44 6 42.220375 6 40 L 6 10 C 6 7.7796254 7.7796254 6 10 6 z M 25 11 C 17.280535 11 11 17.279517 11 25 C 11 32.720483 17.280535 39 25 39 C 32.719465 39 39 32.720483 39 25 C 39 17.279517 32.719465 11 25 11 z M 25 13 C 31.638535 13 37 18.360483 37 25 C 37 31.639517 31.638535 37 25 37 C 18.361465 37 13 31.639517 13 25 C 13 18.360483 18.361465 13 25 13 z M 25 15.947266 C 20.013107 15.947266 15.947266 20.013107 15.947266 25 C 15.947266 29.986893 20.013107 34.052734 25 34.052734 C 29.986893 34.052734 34.052734 29.986893 34.052734 25 C 34.052734 20.013107 29.986893 15.947266 25 15.947266 z M 25 18.052734 C 28.849107 18.052734 31.947266 21.150893 31.947266 25 C 31.947266 28.849107 28.849107 31.947266 25 31.947266 C 21.150893 31.947266 18.052734 28.849107 18.052734 25 C 18.052734 21.150893 21.150893 18.052734 25 18.052734 z"/></svg>
